flaticon/hand-gestures/pointing-down.svg

<svg xmlns="http://www.w3.org/2000/svg" width="32" height="32" viewBox="0 0 24 24">
    <path d="M 21.054688 12.359375 C 20.335938 11.558594 18.855469 9.878906 17.933594 8.199219 C 17.855469 8.121094 16.773438 6.359375 15.574219 5.039062 L 15.574219 4 C 15.574219 1.800781 13.773438 0 11.574219 0 L 7.574219 0 C 5.855469 0 4.054688 1.441406 3.65625 3.160156 C 3.574219 3.601562 3.414062 3.960938 3.253906 4.121094 C 2.855469 4.601562 2.375 5.71875 2.375 7.199219 L 2.375 13.601562 C 2.375 14.71875 3.253906 15.601562 4.375 15.601562 C 4.8125 15.601562 5.253906 15.441406 5.574219 15.199219 L 5.574219 15.601562 C 5.574219 16.71875 6.453125 17.601562 7.574219 17.601562 C 8.015625 17.601562 8.453125 17.441406 8.773438 17.199219 C 8.773438 18.320312 9.65625 19.199219 10.773438 19.199219 C 11.214844 19.199219 11.65625 19.039062 11.972656 18.800781 L 11.972656 22 C 11.972656 23.121094 12.855469 24 13.972656 24 C 15.09375 24 15.972656 23.121094 16.015625 22 L 16.015625 12.921875 C 16.894531 14.441406 18.933594 15.199219 20.496094 14.640625 C 20.734375 14.558594 20.933594 14.441406 21.054688 14.359375 C 21.65625 13.960938 21.613281 13.441406 21.613281 13.28125 C 21.65625 13.039062 21.613281 13 21.054688 12.359375 Z M 20.535156 13.679688 C 20.375 13.761719 20.253906 13.839844 20.132812 13.878906 C 19.09375 14.238281 17.375 13.761719 16.613281 12.441406 L 15.894531 11.359375 C 15.878906 11.328125 15.859375 11.300781 15.832031 11.277344 L 15.496094 10.601562 C 15.414062 10.441406 15.175781 10.359375 14.972656 10.441406 C 14.8125 10.519531 14.734375 10.761719 14.8125 10.960938 L 15.175781 11.679688 L 15.175781 22 C 15.175781 22.679688 14.65625 23.199219 13.972656 23.199219 C 13.292969 23.199219 12.773438 22.679688 12.773438 22 L 12.773438 10.800781 C 12.773438 10.558594 12.613281 10.398438 12.375 10.398438 C 12.132812 10.398438 11.972656 10.558594 11.972656 10.800781 L 11.972656 17.199219 C 11.972656 17.878906 11.453125 18.398438 10.773438 18.398438 C 10.09375 18.398438 9.574219 17.878906 9.574219 17.199219 L 9.574219 11.199219 C 9.574219 10.960938 9.414062 10.800781 9.175781 10.800781 C 8.933594 10.800781 8.773438 10.960938 8.773438 11.199219 L 8.773438 15.601562 C 8.773438 16.28125 8.253906 16.800781 7.574219 16.800781 C 6.894531 16.800781 6.375 16.28125 6.375 15.601562 L 6.375 10.800781 C 6.375 10.558594 6.214844 10.398438 5.972656 10.398438 C 5.734375 10.398438 5.574219 10.558594 5.574219 10.800781 L 5.574219 13.601562 C 5.574219 14.28125 5.054688 14.800781 4.375 14.800781 C 3.695312 14.800781 3.175781 14.28125 3.175781 13.601562 L 3.175781 7.199219 C 3.175781 6.453125 3.308594 5.855469 3.472656 5.417969 C 3.496094 5.386719 3.515625 5.355469 3.535156 5.320312 C 3.695312 4.800781 4.175781 4.679688 5.054688 4.441406 L 5.292969 4.398438 C 5.496094 4.320312 5.65625 4.078125 5.574219 3.878906 C 5.496094 3.679688 5.292969 3.558594 5.054688 3.601562 L 4.855469 3.640625 C 4.675781 3.6875 4.496094 3.738281 4.320312 3.789062 C 4.367188 3.644531 4.410156 3.484375 4.453125 3.320312 C 4.734375 1.960938 6.214844 0.800781 7.574219 0.800781 L 11.574219 0.800781 C 13.335938 0.800781 14.773438 2.238281 14.773438 4 L 14.773438 4.363281 C 14.695312 4.304688 14.617188 4.25 14.535156 4.199219 C 14.292969 4 14.09375 3.878906 13.855469 3.679688 C 13.695312 3.519531 13.453125 3.558594 13.292969 3.71875 C 13.132812 3.878906 13.175781 4.121094 13.335938 4.28125 C 13.574219 4.519531 13.8125 4.679688 14.054688 4.839844 C 14.3125 5.023438 14.570312 5.207031 14.828125 5.421875 C 14.835938 5.441406 14.84375 5.460938 14.855469 5.480469 C 16.054688 6.71875 17.214844 8.601562 17.214844 8.601562 C 18.175781 10.320312 19.695312 12.039062 20.414062 12.878906 C 20.535156 13.039062 20.695312 13.238281 20.773438 13.320312 C 20.773438 13.441406 20.734375 13.558594 20.535156 13.679688 Z M 20.535156 13.679688"/>
</svg>

<svg xmlns="http://www.w3.org/2000/svg" width="32" height="32" viewBox="0 0 24 24">
    <path d="M21.055 12.36c-.72-.801-2.2-2.481-3.121-4.16-.079-.079-1.16-1.84-2.36-3.16V4c0-2.2-1.8-4-4-4h-4c-1.719 0-3.52 1.441-3.918 3.16-.082.442-.242.8-.402.961-.399.48-.879 1.598-.879 3.078v6.403c0 1.117.879 2 2 2 .438 0 .879-.16 1.2-.403v.403c0 1.117.878 2 2 2 .44 0 .878-.16 1.198-.403 0 1.121.883 2 2 2 .442 0 .883-.16 1.2-.398V22c0 1.121.882 2 2 2 1.12 0 2-.879 2.043-2v-9.078c.879 1.52 2.918 2.277 4.48 1.719.238-.082.438-.2.559-.282.601-.398.558-.918.558-1.078.043-.242 0-.281-.558-.922zm-.52 1.32c-.16.082-.281.16-.402.199-1.04.36-2.758-.117-3.52-1.438l-.718-1.082a.255.255 0 0 0-.063-.082l-.336-.675c-.082-.16-.32-.243-.523-.16-.16.078-.239.32-.16.519l.363.719V22c0 .68-.52 1.2-1.203 1.2-.68 0-1.2-.52-1.2-1.2V10.8c0-.241-.16-.402-.398-.402-.242 0-.402.16-.402.403v6.398c0 .68-.52 1.2-1.2 1.2-.68 0-1.199-.52-1.199-1.2v-6c0-.238-.16-.398-.398-.398-.242 0-.403.16-.403.398v4.403c0 .68-.52 1.199-1.199 1.199-.68 0-1.199-.52-1.199-1.2v-4.8c0-.242-.16-.403-.402-.403-.239 0-.399.16-.399.403v2.8c0 .68-.52 1.2-1.199 1.2-.68 0-1.2-.52-1.2-1.2V7.2c0-.746.134-1.344.298-1.781a.831.831 0 0 0 .062-.098c.16-.52.64-.64 1.52-.879l.238-.043c.203-.078.363-.32.281-.52a.454.454 0 0 0-.52-.276l-.199.039c-.18.046-.359.097-.535.148.047-.144.09-.305.133-.469C4.734 1.96 6.215.8 7.574.8h4c1.762 0 3.2 1.438 3.2 3.2v.363a3.227 3.227 0 0 0-.239-.164c-.242-.199-.441-.32-.68-.52-.16-.16-.402-.12-.562.04-.16.16-.117.402.043.562.238.239.476.399.719.559.258.183.515.367.773.582.008.02.016.039.027.058 1.2 1.239 2.36 3.122 2.36 3.122.96 1.718 2.48 3.437 3.2 4.277.12.16.28.36.358.441 0 .121-.039.239-.238.36zm0 0"/>
</svg>
